X:395
T: "Die Muellertochter"
N: Z1075
O: Europa, Mitteleuropa, Deutschland, Rhein
R: Romanze, Ballade
M: 3/4
L: 1/16
K: Eb
G2G2A2 | B4B2e2c2A2 | B4z2
G2G2A2 | B4B2e2c2A2 | B4z2
G2G2A2 | B2A2F3FEDEF | E6
G2G2A2 | B2A2F3FB2B2 | G4z2

